/* XPM */
static char *d9ca87320a9e4ae8a4d7bec06e03721eGv6Qc9IGk2CnZlm5[] = {
/* columns rows colors chars-per-pixel */
"32 32 4 1 ",
"  c #211D1D",
". c #696A6A",
"X c #999F8E",
"o c #D3D9B2",
/* pixels */
".ooX. ..XX. XooX..   ........XXX",
"ooooX. XXXX ooooX..ooX.......XXX",
"ooooXX. XXXXooooX.ooooX.XooX.XXX",
"XooXXX. XX..XooX.XooooXXooooX.XX",
".XXXX. oooX..XX..XXooXXXooooX ..",
"...... ooooX...XX.XXX  XXooX  ..",
".ooo. oooooX..XXXX.     XX  oX..",
"oooooXXoooXX.XXXXXX.XXX. .XoooX.",
"oooooXXXXXX..XXXXXXXoooX XooooX.",
"XoooXX..   ..XXXXXXXoooX XooooX.",
"XXXXX.. XoXX..XXXX..XXXX.XXooXX.",
".XXX.. XoooXX........XX...XXXX..",
"..     XoooXX.ooX....XooX     ..",
".XooXX XXXXX.ooooX..XooooX .oo..",
".ooooXX XXXXXooooXX.XooooX oooo.",
".ooooXX  ...XXooXXX.XXooX Xoooo.",
"XooooX..ooo .XXXXX...XXXX XXooX.",
"XXooXX.ooooX .XX  ...XXX...XXXXX",
".XXXX..XoooX    .XooXX...XXX....",
"X...ooXXXXX XXX.XooooXX.XoooX.XX",
"oX.ooooXX  XXXXXXooooXX.XoooXXoo",
"oX.ooooXX XXXXXXXXooXXX.XooXXXoo",
"XX XooXXX XXXXXXXXXXXX...XXXXXXo",
"XX XXXXXX .XXXXX..XX..XXX.XXX  X",
"X. .XXXX....XXX......XooXX..ooX ",
" .    ....XX...XXX..XooooXXooooX",
". oooo...ooXX XXooX.XooooXXooooX",
" XooooX.ooooX XooooXXXooX..XooXX",
" XoooXXXXooXX XooooXXXXX.XX.XXX.",
" XXXXXXXXXXXX XXooXXXXX.XXXX..  ",
"..XXXXXXXXXXX  XXXX.XXXXXXXX. XX",
"....XX....XX ..   ...XX..XXX XXX"
};
