/* XPM */
static char *result[] = {
/* columns rows colors chars-per-pixel */
"32 32 6 1 ",
"  c #472138",
". c #FB9B72",
"X c #3B6983",
"o c #748F93",
"O c #FAFA82",
"+ c None",
/* pixels */
"++++++++++++++++++++++++++++++++",
"++++++++++++++++++++++++++++++++",
"++++++++++++++++++++++++++++++++",
"++++++++++++++++++++++++++++++++",
"++++++++++++++++++++++++++++++++",
"++++++++++++++++++++++++++++++++",
"+++++++++++++++++O++++++++++++++",
"+++++++++++++++++O++++++++++++++",
"+++++++++++++++++OO+++++++++++++",
"+++++++++++++++++OO+++++++++++++",
"++++++++++++++++OOOO++++++++++++",
"++++++++++++++OOOOOO++++++++++++",
"+++++++++++++OOOOOOO++++++++++++",
"+++++++++++++OOOOOOO++++++++++++",
"++++++++++X.OOOOOOOO.X++++++++++",
"+++++++++X..OOOOOOOO..X+++++++++",
"+++++++++X...OOOOOO...X+++++++++",
"+++++++++XX...OOOO...XX+++++++++",
"++++++++++XXX......XXX++++++++++",
"+++++++++++XXXXXXXXXX+++++++++++",
"++++++++++++XXXXXXXX++++++++++++",
"+++++++++++o  XXXX  o+++++++++++",
"++++++++++o  ++  ++  o++++++++++",
"+++++++++++++++  +++++++++++++++",
"+++++++++++++++oo+++++++++++++++",
"+++++++++++++++oo+++++++++++++++",
"++++++++++++++++++++++++++++++++",
"++++++++++++++++++++++++++++++++",
"++++++++++++++++++++++++++++++++",
"++++++++++++++++++++++++++++++++",
"++++++++++++++++++++++++++++++++",
"++++++++++++++++++++++++++++++++"
};
