/* XPM */
static char *d401e284d5294291ea3725027620aa94RlixLVnQHdOB6Pyl[] = {
/* columns rows colors chars-per-pixel */
"32 32 4 1 ",
"  c None",
". c #0C1317",
"X c #70162B",
"o c #EF3E6D",
/* pixels */
"                                ",
"                                ",
"                                ",
"                                ",
"                                ",
"                                ",
"                                ",
"           XXXXXXXXXX           ",
"        XXXXXX....XXXXXX        ",
"      oo................oo      ",
"    XXXoo..............ooXXX    ",
"   XXX.o.oo..........oo.o.XXX   ",
"  XX...o...oo......oo...o...XX  ",
" XX.....o....oo..oo....o.....XX ",
" XX.....o.....oooo.....o.....XX ",
"XX.......o.ooo....ooo.o.......XX",
"XX......ooo..........ooo......XX",
"XX...ooo..o..........o..ooo...XX",
"XX.oo.....o..........o.....oo.XX",
"XooooooooooooooooooooooooooooooX",
" XX.........o......o.........XX ",
" XX.........o......o.........XX ",
"  XX.........o....o.........XX  ",
"   XX........o....o........XX   ",
"    XXX.......o..o.......XXX    ",
"      XXX.....o..o.....XXX      ",
"        XXXXX..oo..XXXXX        ",
"           XXXXooXXXX           ",
"                                ",
"                                ",
"                                ",
"                                "
};
