/* XPM */
static char *b455c99520664d24e5bcf145968959581jYD3N6db5QK32O6[] = {
/* columns rows colors chars-per-pixel */
"32 32 5 1 ",
"  c None",
". c #222034",
"X c #70162B",
"o c #472138",
"O c #14605D",
/* pixels */
"                                ",
"                                ",
" O                              ",
" OO           O                 ",
" OOO  XXXX   OO                 ",
"  OXXXXXXXX XOO                 ",
"     XXX..XXX                   ",
"     XXoX.XX                    ",
"     XXXoXXXXX                  ",
"      XXXXXXXXX                 ",
"       XXXXXXXXX OOO            ",
"            XXXXXOO             ",
"             XXX                ",
"             XXX                ",
"             XXX                ",
"          OOXXXXXX              ",
"         OOO XXXXXX             ",
"         O    XXXXXXX           ",
"                 XXXXX          ",
"                   XXXX         ",
"                    XXX         ",
"                     XX         ",
"                     XXX        ",
"                     XXX        ",
"                     XXXX       ",
"                      XXXX      ",
"                        XXXX    ",
"                           XX   ",
"                            XX  ",
"                             X  ",
"                                ",
"                                "
};
