/* XPM */
static char *_ad20e2f92804f1f8f7db7883dbf00f2haed7x2RvEpMtQpN[] = {
/* columns rows colors chars-per-pixel */
"32 32 7 1 ",
"  c None",
". c #10162E",
"X c #70162B",
"o c #31314B",
"O c #5A5875",
"+ c #EF3E6D",
"@ c #FB9B72",
/* pixels */
"                                ",
"                 oo             ",
"                oXo             ",
"               o+ooo            ",
"              o+Xooo            ",
"              o+ooooo           ",
"             o++++ooo           ",
"             XooooXoo           ",
"            oo++++oXoo          ",
"            o+....+ooo          ",
"            X..@...+ooo         ",
"            o.@@@@@oXXXo        ",
"           ooo.@@@.ooooo        ",
"          oXooo...oooo+X        ",
"          oo+ooo.oooo+ooo       ",
"         ooo+ooo.ooo+ooooo      ",
"         ooo+ooo+ooo+ooooo      ",
"         ooo+o+++++o+ooooo      ",
"         ooo+ooo+ooo+ooooo      ",
"        oooo+oo+++oo+oooooo     ",
"        oooo+ooo+ooo+oooooo     ",
"        Oooo+ooooooo+oooooo     ",
"        OOoo+ooo+ooo+oooooO     ",
"        OOOo+o+++++o+ooooOO     ",
"        OOOo+ooo+ooo+ooOOOO     ",
"         OOo+ooo+ooo+ooOOO      ",
"          Oo+oo+++oo+ooOO       ",
"           o+ooo+ooo+ooo        ",
"           o+ooooooo+ooo        ",
"           o+++++++++ooo        ",
"            ooooooooooo         ",
"             ooooooooo          "
};
