/* XPM */
static char *_8b2833fec4b4c3485823f0603dc99ecaPdJcLiWW1UW6By0[] = {
/* columns rows colors chars-per-pixel */
"32 32 7 1 ",
"  c None",
". c #211D1D",
"X c #5A5875",
"o c #696A6A",
"O c #8D768A",
"+ c #999F8E",
"@ c #D3D9B2",
/* pixels */
"o@@+oooo++oo+@@+.oo@@+ooooooo+++",
"@@@@+oo++++o@@@@+.@@@@+o+@@+o+++",
"@@@@++o+++++@@@@++@@@@++@@@@++++",
"+@@+++o.++oo+@@+o++@@+++@@@@+o++",
"o++++o.@@@+oo++ooo++++.++@@+oooo",
"o++++.@@@@@+ooo++oo++o.++++ooooo",
"o@@@o.@@@@@++o@@++oooo.o++oo@+oo",
"@@@@@.+@@@+++@@@@+oo+++.oo+@@@+o",
"@@@@@+.++++++@@@@+.+@@++.+@@@@+o",
"+@@@++..+++oo+@@++.+@@++.+@@@@+o",
"+++++.o@@++ooo+++.oo+++++++@@++.",
"o+++.o+@@+++oo....ooo+++++++++.o",
"oo+++o++++++ooo+++.oo@@++ooo..oo",
"o+@@+oo++++++o+@@++.@@@@++o.@@oo",
"+@@@+ooo++o+++@@@@++@@@@++.@@@@o",
"++@+++oo...o++@@@@+++@@++.+@@@@+",
"++++++oo+++.o++@@+++o++++.++++++",
"X+++XXXX++++..X+.+.+.++XX .XX++X",
".XX..XXXX++X..X..X...XX...X..XX.",
"..X..X.XXXXXX..XX..X..X...X..O..",
"X..XX...XXXXX...XXX..XXXX..XO..X",
".XXX...X..XX...X.X....X.O...XXX.",
"..X.X..X..X.....XXX...XO........",
".OOO....XX.....XX....XOOO..XX...",
"XOOXX..XXXXX..OOXX..XXXOX.XXXX..",
".XX..X..XX.XX.XX..X.X..XXXXXXX..",
"..X..X..XO..X..X..X.X..X..XX..X.",
"X..XX..X..OX....XX...XX..X.X..X.",
".XXX....XXX...XXX.....XXX...XX..",
"..X.X......X...X.X...X.X..XXX...",
"..XX.....XX....XX.....XX...X.X..",
"................................"
};
